X: 208
T: Guan deng
L: 1/8
M: 2/4
K: C
C2C A, [I:setbarnb 1]| 
G,2G,2 | 
C D C A, | 
G,4 | 
EG2A | 
G2E E | 
D B, A, G, | 
C3E | 
D C A, E, | 
G,4 |]

@@@ Tune index: 9082
